**kern	**kern	**dynam
*part1	*part1	*part1
*staff2	*staff1	*
*I"Piano	*	*
*clefF4	*clefG2	*
*k[]	*k[]	*
=1	=1	=1
4GGG^ 4GG	8g 8b 8ee	<
.	4f) 4b 4dd	.
8G	.	.
=	=	=
(16CCLL	(8gL 8b-X 8ee 8gg	[
16GG	.	.
16C	8.f#X 8.ff#X	.
16E	.	.
16G	.	.
16B-XJJ	16gJk 16gg	.
=	=	=
*	*^	*
4d)	4dd^	4.e 4.g 4.b-X	>
8c	8cc)	.	.
*	*v	*v	*
=	=	=
!	!LO:TX:b:i:t=rall.	!
4.FFF^ 4.FF	(4c^ 4e-X 4a	] p
.	8cc)	.
=	=	=
8r	8r	.
8BBBL 8BB	(8D#X~L< 8F#X< 8A< 8c<	pp
8BBBJ 8BB	8D#~J<) 8F#< 8A< 8c<	.
=	=	=
[4.EEE [4.EE	(8cL 8e 8g#X	p >
.	8.f##X	.
.	16g#Jk	.
=	=	=
4EEE] 4EE]	4E< 4G#X< 4c<	.
8rCC	8B<)	.
=	=	=
*-	*-	*-
!!!system-decoration: {(s1,s2)}
!!!RDF**kern: < = below
